src/assets/icons/stats/fluency.svg

<svg height="512" viewBox="0 0 64 64" width="512" xmlns="http://www.w3.org/2000/svg"><g id="Fill_Outline" data-name="Fill Outline"><path d="m3 23v32h21a10 10 0 0 1 8 4 10 10 0 0 1 8-4h21v-32z" fill="#f06e7a"/><path d="m32.555 23a3.955 3.955 0 0 0 -.555 2 3.955 3.955 0 0 0 -.555-2h-26.445v30h18.528a18.946 18.946 0 0 1 8.472 2 18.946 18.946 0 0 1 8.472-2h16.528v-30z" fill="#a7325c"/><path d="m36 19a4 4 0 0 0 -4 4v30a18.949 18.949 0 0 1 8.472-2h16.528v-32z" fill="#92e5eb"/><path d="m7 19v32h16.528a18.949 18.949 0 0 1 8.472 2v-30a4 4 0 0 0 -4-4z" fill="#92e5eb"/><path d="m38 33v-14h-2a4 4 0 0 0 -4 4v30a18.946 18.946 0 0 1 8.472-2h16.528v-4h-5a14 14 0 0 1 -14-14z" fill="#68cbf2"/><path d="m22 45a10 10 0 0 1 -10-10v-16h-5v32h16.528a18.946 18.946 0 0 1 8.472 2v-6a18.946 18.946 0 0 0 -8.472-2z" fill="#68cbf2"/><circle cx="32" cy="16" fill="#34b2e4" r="11"/><path d="m36 23a10.986 10.986 0 0 1 -9.51-16.51 10.993 10.993 0 1 0 15.02 15.02 10.93 10.93 0 0 1 -5.51 1.49z" fill="#2070a1"/><path d="m43 16a10.994 10.994 0 0 1 -11 11v-3l3-2-1-3 4-5-4-2 3.81-5.34a10.968 10.968 0 0 1 5.19 9.34z" fill="#80e1b8"/><path d="m26 15 3 4-2 4-2.6.95a11 11 0 0 1 .04-15.94l4.56 3.99z" fill="#80e1b8"/><path d="m34.19 5.22-3.19 4.78-1.57-4.7a10.83 10.83 0 0 1 2.57-.3 10.565 10.565 0 0 1 2.19.22z" fill="#80e1b8"/><path d="m33.826 22.783-1.826 1.217v3a10.983 10.983 0 0 0 9.514-5.492 10.952 10.952 0 0 1 -7.688 1.275z" fill="#3aba80"/><path d="m25 12a10.98 10.98 0 0 1 .452-3.1l-1.012-.89a11 11 0 0 0 -.04 15.94l2.6-.95 1.489-2.979a10.959 10.959 0 0 1 -3.489-8.021z" fill="#3aba80"/><g fill="#2f2f31"><path d="m61 22a1 1 0 0 0 -1 1v31h-20a11.061 11.061 0 0 0 -8 3.451 11.057 11.057 0 0 0 -8-3.451h-20v-31a1 1 0 0 0 -2 0v32a1 1 0 0 0 1 1h21a9.045 9.045 0 0 1 7.2 3.6 1 1 0 0 0 1.6 0 9.044 9.044 0 0 1 7.2-3.6h21a1 1 0 0 0 1-1v-32a1 1 0 0 0 -1-1z"/><path d="m12 36a1 1 0 0 0 -1 1v8a1 1 0 0 0 1 1h2a3 3 0 0 0 0-6h-1v-3a1 1 0 0 0 -1-1zm3 7a1 1 0 0 1 -1 1h-1v-2h1a1 1 0 0 1 1 1z"/><path d="m18.105 23.553-4 8a1 1 0 1 0 1.79.894l1.223-2.447h3.764l1.223 2.447a1 1 0 1 0 1.79-.894l-4-8a1.042 1.042 0 0 0 -1.79 0zm1.777 4.447h-1.764l.882-1.764z"/><path d="m23.612 41.165a.6.6 0 0 1 .524.309 1 1 0 0 0 1.728-1.006 2.607 2.607 0 0 0 -4.864 1.308v1.613a2.607 2.607 0 0 0 4.864 1.311 1 1 0 0 0 -1.728-1.006.6.6 0 0 1 -.524.309.612.612 0 0 1 -.612-.614v-1.613a.612.612 0 0 1 .612-.611z"/><path d="m38.528 44.882a1 1 0 0 0 1.027-.05l3-2a1 1 0 1 0 -1.11-1.664l-1.445.964v-6.132a1 1 0 0 0 -1-1h-3a1 1 0 0 0 0 2h2v7a1 1 0 0 0 .528.882z"/><path d="m39 34a1 1 0 0 0 .707-1.707l-2-2a1 1 0 0 0 -1.414 1.414l2 2a1 1 0 0 0 .707.293z"/><path d="m53 28a1 1 0 0 0 0-2h-9a1 1 0 0 0 0 2h2.867l-.25 2h-2.617a1 1 0 0 0 0 2h2.367l-.359 2.876a.852.852 0 0 0 .009.124h-2.017a1 1 0 0 0 0 2h9a1 1 0 0 0 0-2h-1v-4a1 1 0 0 0 -1-1h-2.367l.25-2zm-3 4v3h-1.992l.375-3z"/><path d="m53 47a1 1 0 0 0 1-1v-6a1 1 0 0 0 -1-1h-8a1 1 0 0 0 -1 1v6a1 1 0 0 0 2 0v-1h6v1a1 1 0 0 0 1 1zm-7-4v-2h6v2z"/><path d="m7 40a1 1 0 0 0 1-1v-19h9.425a1 1 0 0 0 0-2h-10.425a1 1 0 0 0 -1 1v20a1 1 0 0 0 1 1z"/><path d="m7 52h16.528a18.023 18.023 0 0 1 8.025 1.9c.013.006.029 0 .043.01a1.018 1.018 0 0 0 .404.09 1 1 0 0 0 .4-.095c.015-.006.031 0 .046-.01a18.023 18.023 0 0 1 8.026-1.895h16.528a1 1 0 0 0 1-1v-32a1 1 0 0 0 -1-1h-10.425a1 1 0 0 0 0 2h9.425v30h-15.528a20.05 20.05 0 0 0 -7.472 1.462v-20.462a1 1 0 0 0 -2 0v20.453a20.061 20.061 0 0 0 -7.472-1.453h-15.528v-7a1 1 0 0 0 -2 0v8a1 1 0 0 0 1 1z"/><path d="m32 28a11.937 11.937 0 0 0 11.824-13.98 1 1 0 1 0 -1.972.328 9.936 9.936 0 0 1 -8.852 11.601v-1.414l2.555-1.7a1 1 0 0 0 .394-1.148l-.828-2.487 3.66-4.575a1 1 0 0 0 -.334-1.52l-2.975-1.487a1 1 0 1 0 -.9 1.789l1.869.935-3.227 4.033a1 1 0 0 0 -.168.941l.759 2.276-2.365 1.576a1 1 0 0 0 -.44.832v1.949a9.921 9.921 0 0 1 -4.6-1.666l.939-.344a1 1 0 0 0 .552-.492l2-4a1 1 0 0 0 -.091-1.047l-2.48-3.306 2.387-2.387a1 1 0 0 0 -.048-1.46l-3.675-3.216a10.013 10.013 0 0 1 2.805-1.493l1.262 3.778a1 1 0 0 0 1.781.239l2.8-4.193a10.063 10.063 0 0 1 5.979 4.571 1 1 0 0 0 1.723-1.016 12 12 0 1 0 -10.334 18.083zm.447-21.97-1.147 1.716-.554-1.659a9.945 9.945 0 0 1 1.254-.087c.15 0 .3.023.447.03zm-7.939 3.37 3.029 2.65-2.244 2.244a1 1 0 0 0 -.093 1.306l2.629 3.505-1.546 3.095-1.608.588a9.942 9.942 0 0 1 -.167-13.388z"/></g></g></svg>

<?xml version="1.0"?>
<svg xmlns="http://www.w3.org/2000/svg" viewBox="0 0 64 64" width="512" height="512"><g id="Outline"><g><path d="M61,22a1,1,0,0,0-1,1V54H40a11.061,11.061,0,0,0-8,3.451A11.057,11.057,0,0,0,24,54H4V23a1,1,0,0,0-2,0V55a1,1,0,0,0,1,1H24a9.045,9.045,0,0,1,7.2,3.6,1,1,0,0,0,1.6,0A9.044,9.044,0,0,1,40,56H61a1,1,0,0,0,1-1V23A1,1,0,0,0,61,22Z"/><path d="M12,36a1,1,0,0,0-1,1v8a1,1,0,0,0,1,1h2a3,3,0,0,0,0-6H13V37A1,1,0,0,0,12,36Zm3,7a1,1,0,0,1-1,1H13V42h1A1,1,0,0,1,15,43Z"/><path d="M18.105,23.553l-4,8a1,1,0,1,0,1.79.894L17.118,30h3.764l1.223,2.447a1,1,0,1,0,1.79-.894l-4-8A1.042,1.042,0,0,0,18.105,23.553ZM19.882,28H18.118L19,26.236Z"/><path d="M23.612,41.165a.6.6,0,0,1,.524.309,1,1,0,0,0,1.728-1.006A2.607,2.607,0,0,0,21,41.776v1.613A2.607,2.607,0,0,0,25.864,44.7a1,1,0,0,0-1.728-1.006.6.6,0,0,1-.524.309A.612.612,0,0,1,23,43.389V41.776A.612.612,0,0,1,23.612,41.165Z"/><path d="M38.528,44.882a1,1,0,0,0,1.027-.05l3-2a1,1,0,1,0-1.11-1.664L40,42.132V36a1,1,0,0,0-1-1H36a1,1,0,0,0,0,2h2v7A1,1,0,0,0,38.528,44.882Z"/><path d="M39,34a1,1,0,0,0,.707-1.707l-2-2a1,1,0,0,0-1.414,1.414l2,2A1,1,0,0,0,39,34Z"/><path d="M53,28a1,1,0,0,0,0-2H44a1,1,0,0,0,0,2h2.867l-.25,2H44a1,1,0,0,0,0,2h2.367l-.359,2.876a.852.852,0,0,0,.009.124H44a1,1,0,0,0,0,2h9a1,1,0,0,0,0-2H52V31a1,1,0,0,0-1-1H48.633l.25-2Zm-3,4v3H48.008l.375-3Z"/><path d="M53,47a1,1,0,0,0,1-1V40a1,1,0,0,0-1-1H45a1,1,0,0,0-1,1v6a1,1,0,0,0,2,0V45h6v1A1,1,0,0,0,53,47Zm-7-4V41h6v2Z"/><path d="M7,40a1,1,0,0,0,1-1V20h9.425a1,1,0,0,0,0-2H7a1,1,0,0,0-1,1V39A1,1,0,0,0,7,40Z"/><path d="M7,52H23.528a18.023,18.023,0,0,1,8.025,1.9c.013.006.029,0,.043.01A1.018,1.018,0,0,0,32,54h0a1,1,0,0,0,.4-.095c.015-.006.031,0,.046-.01A18.023,18.023,0,0,1,40.472,52H57a1,1,0,0,0,1-1V19a1,1,0,0,0-1-1H46.575a1,1,0,0,0,0,2H56V50H40.472A20.05,20.05,0,0,0,33,51.462V31a1,1,0,0,0-2,0V51.453A20.061,20.061,0,0,0,23.528,50H8V43a1,1,0,0,0-2,0v8A1,1,0,0,0,7,52Z"/><path d="M32,28A11.937,11.937,0,0,0,43.824,14.02a1,1,0,1,0-1.972.328A9.936,9.936,0,0,1,33,25.949V24.535l2.555-1.7a1,1,0,0,0,.394-1.148L35.121,19.2l3.66-4.575a1,1,0,0,0-.334-1.52l-2.975-1.487a1,1,0,1,0-.9,1.789l1.869.935-3.227,4.033a1,1,0,0,0-.168.941l.759,2.276-2.365,1.576A1,1,0,0,0,31,24v1.949a9.921,9.921,0,0,1-4.6-1.666l.939-.344a1,1,0,0,0,.552-.492l2-4A1,1,0,0,0,29.8,18.4l-2.48-3.306,2.387-2.387a1,1,0,0,0-.048-1.46L25.984,8.031a10.013,10.013,0,0,1,2.805-1.493l1.262,3.778a1,1,0,0,0,1.781.239l2.8-4.193a10.063,10.063,0,0,1,5.979,4.571,1,1,0,0,0,1.723-1.016A12,12,0,1,0,32,28Zm.447-21.97L31.3,7.746l-.554-1.659A9.945,9.945,0,0,1,32,6C32.15,6,32.3,6.023,32.447,6.03ZM24.508,9.4l3.029,2.65-2.244,2.244A1,1,0,0,0,25.2,15.6l2.629,3.505L26.283,22.2l-1.608.588A9.942,9.942,0,0,1,24.508,9.4Z"/></g></g></svg>
